X:2499
T:Polska från Norrland
T:Svenska Folkdansar H3 nr 11
O:Norrland
B:Traditioner av Svenska Folkdansar Häfte 3, nr 11
R:Polska
Z:Nils L
M: 3/4
L: 1/8
K: Cm
G2 =B2 c2 | e2 (ed) (dc) | G2 =B2 c2 | (e/d/c/d/) c4 ::
!arpeggio![G2B2e2g2] (g/f/e/f/) ge | g>g f>f g2 | (g>a) (f>a) ge | ff {g/}fe/f/ g2 |
e2 (g>e) .c.d | e2 (e/d/c/=B/) cd | e2 (g>e) .c.d | (e/d/.c/.=B/) c2 C2 |
e2 (g>e) .c.d | e2 (e/d/c/=B/) cd | e2 (g>e) .c.d | (e/d/.c/.=B/) c2 C2 :|
(:musicend:)
(:music:)
